flaticon/essential/stopwatch.svg

<svg xmlns="http://www.w3.org/2000/svg" width="32" height="32" viewBox="0 0 24 24">
    <path d="M 23.589844 15.105469 C 23.589844 15.105469 23.589844 15.101562 23.589844 15.101562 C 23.855469 14.113281 24 13.074219 24 12 C 24 10.925781 23.855469 9.886719 23.589844 8.898438 C 23.589844 8.898438 23.589844 8.894531 23.589844 8.894531 C 23.589844 8.890625 23.589844 8.890625 23.589844 8.890625 C 23.316406 7.875 22.914062 6.917969 22.402344 6.027344 C 22.398438 6.019531 22.398438 6.007812 22.390625 6 C 22.386719 5.992188 22.378906 5.988281 22.375 5.976562 C 21.855469 5.085938 21.226562 4.265625 20.503906 3.539062 C 20.496094 3.53125 20.492188 3.523438 20.484375 3.515625 C 20.476562 3.507812 20.46875 3.503906 20.460938 3.496094 C 19.730469 2.773438 18.914062 2.144531 18.023438 1.625 C 18.011719 1.621094 18.007812 1.613281 18 1.609375 C 17.992188 1.601562 17.980469 1.601562 17.972656 1.597656 C 17.082031 1.085938 16.125 0.683594 15.109375 0.410156 C 15.109375 0.410156 15.105469 0.410156 15.105469 0.410156 C 15.105469 0.410156 15.101562 0.410156 15.101562 0.410156 C 14.113281 0.144531 13.074219 0 12 0 C 10.925781 0 9.886719 0.144531 8.898438 0.410156 C 8.898438 0.410156 8.894531 0.410156 8.894531 0.410156 C 8.890625 0.410156 8.890625 0.410156 8.890625 0.410156 C 7.875 0.683594 6.917969 1.085938 6.027344 1.597656 C 6.019531 1.601562 6.007812 1.601562 6 1.609375 C 5.992188 1.613281 5.988281 1.621094 5.976562 1.625 C 5.085938 2.144531 4.269531 2.773438 3.539062 3.496094 C 3.53125 3.503906 3.523438 3.507812 3.515625 3.515625 C 3.507812 3.523438 3.503906 3.53125 3.496094 3.539062 C 2.773438 4.269531 2.144531 5.085938 1.625 5.976562 C 1.621094 5.988281 1.613281 5.992188 1.609375 6 C 1.601562 6.007812 1.601562 6.019531 1.597656 6.027344 C 1.085938 6.917969 0.683594 7.875 0.410156 8.890625 C 0.410156 8.890625 0.410156 8.890625 0.410156 8.894531 C 0.410156 8.894531 0.410156 8.898438 0.410156 8.898438 C 0.144531 9.886719 0 10.925781 0 12 C 0 13.074219 0.144531 14.113281 0.410156 15.101562 C 0.410156 15.101562 0.410156 15.105469 0.410156 15.105469 C 0.410156 15.109375 0.410156 15.109375 0.410156 15.109375 C 0.683594 16.125 1.085938 17.082031 1.597656 17.972656 C 1.601562 17.980469 1.601562 17.992188 1.609375 18 C 1.613281 18.011719 1.625 18.023438 1.632812 18.03125 C 2.152344 18.917969 2.777344 19.734375 3.496094 20.457031 C 3.503906 20.46875 3.507812 20.476562 3.515625 20.484375 C 3.523438 20.492188 3.53125 20.496094 3.542969 20.503906 C 4.269531 21.226562 5.085938 21.851562 5.976562 22.371094 C 5.984375 22.378906 5.992188 22.386719 6 22.390625 C 6.015625 22.398438 6.027344 22.402344 6.042969 22.410156 C 6.929688 22.917969 7.882812 23.316406 8.890625 23.589844 C 8.890625 23.589844 8.894531 23.589844 8.894531 23.589844 C 8.894531 23.589844 8.898438 23.589844 8.902344 23.589844 C 9.890625 23.855469 10.929688 24 12 24 C 13.070312 24 14.109375 23.855469 15.101562 23.589844 C 15.101562 23.589844 15.105469 23.589844 15.105469 23.589844 C 15.109375 23.589844 15.109375 23.589844 15.109375 23.589844 C 16.117188 23.316406 17.070312 22.917969 17.957031 22.410156 C 17.972656 22.402344 17.988281 22.402344 18 22.390625 C 18.007812 22.386719 18.015625 22.378906 18.023438 22.371094 C 18.914062 21.851562 19.734375 21.226562 20.460938 20.503906 C 20.46875 20.496094 20.476562 20.492188 20.484375 20.484375 C 20.492188 20.476562 20.496094 20.46875 20.503906 20.460938 C 21.222656 19.734375 21.847656 18.921875 22.367188 18.035156 C 22.375 18.023438 22.386719 18.011719 22.390625 18 C 22.398438 17.992188 22.398438 17.980469 22.402344 17.972656 C 22.914062 17.085938 23.316406 16.125 23.589844 15.109375 C 23.589844 15.109375 23.589844 15.109375 23.589844 15.105469 Z M 21.941406 15.078125 L 22.707031 15.28125 C 22.496094 15.96875 22.222656 16.625 21.890625 17.246094 L 21.207031 16.851562 C 21.015625 16.742188 20.769531 16.808594 20.660156 17 C 20.550781 17.191406 20.617188 17.4375 20.808594 17.546875 L 21.488281 17.941406 C 21.109375 18.542969 20.675781 19.105469 20.191406 19.625 L 19.636719 19.070312 C 19.480469 18.914062 19.226562 18.914062 19.070312 19.070312 C 18.914062 19.226562 18.914062 19.480469 19.070312 19.636719 L 19.625 20.191406 C 19.109375 20.675781 18.542969 21.109375 17.941406 21.488281 L 17.546875 20.804688 C 17.4375 20.613281 17.191406 20.546875 17 20.660156 C 16.808594 20.769531 16.742188 21.015625 16.855469 21.207031 L 17.25 21.890625 C 16.625 22.222656 15.96875 22.496094 15.285156 22.707031 L 15.078125 21.941406 C 15.019531 21.726562 14.804688 21.601562 14.589844 21.660156 C 14.375 21.714844 14.25 21.933594 14.304688 22.148438 L 14.511719 22.910156 C 13.828125 23.070312 13.125 23.164062 12.402344 23.1875 L 12.402344 21.601562 C 12.402344 21.378906 12.222656 21.199219 12 21.199219 C 11.777344 21.199219 11.601562 21.378906 11.601562 21.601562 L 11.601562 23.191406 C 10.878906 23.164062 10.171875 23.070312 9.492188 22.914062 L 9.695312 22.148438 C 9.753906 21.9375 9.625 21.71875 9.414062 21.660156 C 9.199219 21.601562 8.980469 21.730469 8.921875 21.941406 L 8.71875 22.707031 C 8.03125 22.496094 7.375 22.222656 6.753906 21.890625 L 7.148438 21.207031 C 7.257812 21.015625 7.191406 20.769531 7 20.660156 C 6.808594 20.550781 6.566406 20.617188 6.453125 20.808594 L 6.0625 21.488281 C 5.457031 21.109375 4.894531 20.675781 4.375 20.191406 L 4.929688 19.636719 C 5.085938 19.480469 5.085938 19.226562 4.929688 19.070312 C 4.773438 18.914062 4.519531 18.914062 4.363281 19.070312 L 3.808594 19.625 C 3.324219 19.109375 2.890625 18.542969 2.511719 17.941406 L 3.191406 17.546875 C 3.386719 17.4375 3.449219 17.191406 3.339844 17 C 3.230469 16.808594 2.984375 16.742188 2.792969 16.855469 L 2.109375 17.25 C 1.777344 16.625 1.503906 15.96875 1.292969 15.285156 L 2.058594 15.078125 C 2.273438 15.019531 2.398438 14.800781 2.339844 14.589844 C 2.285156 14.375 2.066406 14.246094 1.851562 14.304688 L 1.085938 14.511719 C 0.929688 13.828125 0.835938 13.121094 0.808594 12.398438 L 2.398438 12.398438 C 2.621094 12.398438 2.800781 12.222656 2.800781 12 C 2.800781 11.777344 2.621094 11.601562 2.398438 11.601562 L 0.808594 11.601562 C 0.835938 10.878906 0.929688 10.171875 1.085938 9.488281 L 1.851562 9.695312 C 1.886719 9.703125 1.921875 9.707031 1.953125 9.707031 C 2.128906 9.707031 2.292969 9.589844 2.339844 9.410156 C 2.398438 9.199219 2.269531 8.980469 2.058594 8.921875 L 1.292969 8.71875 C 1.503906 8.03125 1.777344 7.375 2.109375 6.753906 L 2.792969 7.148438 C 2.855469 7.183594 2.925781 7.199219 2.992188 7.199219 C 3.132812 7.199219 3.265625 7.128906 3.339844 7 C 3.449219 6.808594 3.382812 6.5625 3.191406 6.453125 L 2.511719 6.058594 C 2.890625 5.457031 3.324219 4.890625 3.808594 4.375 L 4.363281 4.929688 C 4.441406 5.007812 4.542969 5.046875 4.644531 5.046875 C 4.75 5.046875 4.851562 5.007812 4.929688 4.929688 C 5.085938 4.773438 5.085938 4.519531 4.929688 4.363281 L 4.375 3.808594 C 4.890625 3.324219 5.457031 2.890625 6.058594 2.511719 L 6.453125 3.191406 C 6.527344 3.320312 6.660156 3.394531 6.800781 3.394531 C 6.867188 3.394531 6.9375 3.375 7 3.339844 C 7.191406 3.230469 7.257812 2.984375 7.144531 2.792969 L 6.75 2.109375 C 7.375 1.777344 8.03125 1.503906 8.714844 1.292969 L 8.921875 2.058594 C 8.96875 2.238281 9.128906 2.355469 9.308594 2.355469 C 9.34375 2.355469 9.375 2.351562 9.410156 2.339844 C 9.625 2.285156 9.75 2.0625 9.695312 1.851562 L 9.488281 1.085938 C 10.171875 0.929688 10.878906 0.835938 11.601562 0.808594 L 11.601562 2.398438 C 11.601562 2.621094 11.777344 2.800781 12 2.800781 C 12.222656 2.800781 12.398438 2.621094 12.398438 2.398438 L 12.398438 0.808594 C 13.121094 0.835938 13.828125 0.929688 14.511719 1.085938 L 14.304688 1.851562 C 14.246094 2.0625 14.375 2.28125 14.589844 2.339844 C 14.621094 2.347656 14.65625 2.355469 14.691406 2.355469 C 14.867188 2.355469 15.03125 2.238281 15.078125 2.058594 L 15.28125 1.292969 C 15.96875 1.503906 16.625 1.777344 17.246094 2.109375 L 16.851562 2.792969 C 16.742188 2.984375 16.808594 3.230469 17 3.339844 C 17.0625 3.375 17.132812 3.394531 17.199219 3.394531 C 17.335938 3.394531 17.472656 3.320312 17.546875 3.191406 L 17.941406 2.511719 C 18.542969 2.890625 19.105469 3.324219 19.625 3.808594 L 19.070312 4.363281 C 18.914062 4.519531 18.914062 4.773438 19.070312 4.929688 C 19.148438 5.007812 19.25 5.046875 19.355469 5.046875 C 19.457031 5.046875 19.558594 5.007812 19.636719 4.929688 L 20.191406 4.375 C 20.675781 4.890625 21.109375 5.457031 21.488281 6.058594 L 20.804688 6.453125 C 20.613281 6.5625 20.550781 6.808594 20.660156 7 C 20.734375 7.128906 20.867188 7.199219 21.007812 7.199219 C 21.074219 7.199219 21.144531 7.183594 21.207031 7.144531 L 21.890625 6.75 C 22.222656 7.375 22.496094 8.03125 22.707031 8.714844 L 21.941406 8.921875 C 21.726562 8.976562 21.601562 9.199219 21.660156 9.410156 C 21.707031 9.589844 21.867188 9.707031 22.042969 9.707031 C 22.078125 9.707031 22.113281 9.703125 22.148438 9.695312 L 22.914062 9.488281 C 23.070312 10.171875 23.164062 10.875 23.1875 11.597656 L 21.601562 11.597656 C 21.378906 11.597656 21.199219 11.777344 21.199219 12 C 21.199219 12.222656 21.378906 12.398438 21.601562 12.398438 L 23.191406 12.398438 C 23.164062 13.121094 23.070312 13.828125 22.914062 14.507812 L 22.148438 14.304688 C 21.9375 14.246094 21.71875 14.375 21.660156 14.589844 C 21.601562 14.800781 21.730469 15.019531 21.941406 15.078125 Z M 21.941406 15.078125"/>
    <path d="M16.398438 11.601562L13.542969 11.601562C13.398438 11.039062 12.960938 10.601562 12.398438 10.457031L12.398438 5.199219C12.398438 4.980469 12.222656 4.800781 12 4.800781 11.777344 4.800781 11.601562 4.980469 11.601562 5.199219L11.601562 10.457031C10.910156 10.636719 10.398438 11.257812 10.398438 12 10.398438 12.882812 11.117188 13.601562 12 13.601562 12.742188 13.601562 13.363281 13.089844 13.542969 12.398438L16.398438 12.398438C16.621094 12.398438 16.800781 12.222656 16.800781 12 16.800781 11.777344 16.621094 11.601562 16.398438 11.601562zM12 12.800781C11.558594 12.800781 11.199219 12.441406 11.199219 12 11.199219 11.558594 11.558594 11.199219 12 11.199219 12.441406 11.199219 12.800781 11.558594 12.800781 12 12.800781 12.441406 12.441406 12.800781 12 12.800781zM12 14C10.234375 14 8.800781 15.4375 8.800781 17.199219 8.800781 18.964844 10.234375 20.398438 12 20.398438 13.765625 20.398438 15.199219 18.964844 15.199219 17.199219 15.199219 15.4375 13.765625 14 12 14zM12 19.601562C10.675781 19.601562 9.601562 18.523438 9.601562 17.199219 9.601562 15.875 10.675781 14.800781 12 14.800781 13.324219 14.800781 14.398438 15.875 14.398438 17.199219 14.398438 18.523438 13.324219 19.601562 12 19.601562zM12 19.601562"/>
    <path d="M 11.082031 15.71875 C 10.925781 15.5625 10.671875 15.5625 10.515625 15.71875 C 10.359375 15.875 10.359375 16.125 10.515625 16.28125 L 11.71875 17.484375 C 11.796875 17.5625 11.898438 17.601562 12 17.601562 C 12.101562 17.601562 12.203125 17.5625 12.28125 17.484375 C 12.4375 17.328125 12.4375 17.074219 12.28125 16.917969 Z M 11.082031 15.71875"/>
</svg>

<svg xmlns="http://www.w3.org/2000/svg" width="32" height="32" viewBox="0 0 24 24">
    <path d="M23.59 15.105v-.003a11.931 11.931 0 0 0 0-6.204v-.003-.004a12.001 12.001 0 0 0-1.188-2.864c-.004-.007-.004-.02-.011-.027-.004-.008-.012-.012-.016-.023-.52-.891-1.148-1.711-1.871-2.438-.008-.008-.012-.016-.02-.023-.007-.008-.015-.012-.023-.02a12.217 12.217 0 0 0-2.438-1.871c-.011-.004-.015-.012-.023-.016-.008-.007-.02-.007-.027-.011A12.001 12.001 0 0 0 15.109.41h-.004-.003a11.931 11.931 0 0 0-6.204 0h-.007a12.001 12.001 0 0 0-2.864 1.188c-.007.004-.02.004-.027.011-.008.004-.012.012-.023.016-.891.52-1.707 1.148-2.438 1.871-.008.008-.016.012-.023.02-.008.007-.012.015-.02.023a12.217 12.217 0 0 0-1.871 2.438c-.004.011-.012.015-.016.023-.007.008-.007.02-.011.027A12.001 12.001 0 0 0 .41 8.895v.003a11.931 11.931 0 0 0 0 6.204v.007a12.001 12.001 0 0 0 1.188 2.864c.004.007.004.02.011.027.004.012.016.023.024.031a12.14 12.14 0 0 0 1.863 2.426c.008.012.012.02.02.027.007.008.015.012.027.02a12.064 12.064 0 0 0 2.434 1.867c.007.008.015.016.023.02.016.007.027.011.043.02.887.507 1.84.905 2.848 1.179h.011a11.924 11.924 0 0 0 6.2 0h.007a12.096 12.096 0 0 0 2.848-1.18c.016-.008.031-.008.043-.02.008-.003.016-.011.023-.019.891-.52 1.711-1.144 2.438-1.867.008-.008.016-.012.023-.02.008-.007.012-.015.02-.023a12.252 12.252 0 0 0 1.863-2.426c.008-.012.02-.023.024-.035.007-.008.007-.02.011-.027.512-.887.914-1.848 1.188-2.864v-.004zm-1.649-.027l.766.203c-.21.688-.484 1.344-.816 1.965l-.684-.394a.402.402 0 0 0-.547.148.402.402 0 0 0 .149.547l.68.394a11.292 11.292 0 0 1-1.298 1.684l-.554-.555a.4.4 0 0 0-.567.567l.555.554c-.516.485-1.082.918-1.684 1.297l-.394-.683A.397.397 0 0 0 17 20.66a.397.397 0 0 0-.145.547l.395.684a11.26 11.26 0 0 1-1.965.816l-.207-.766a.395.395 0 0 0-.488-.28.399.399 0 0 0-.285.487l.207.762c-.684.16-1.387.254-2.11.277v-1.585a.402.402 0 0 0-.402-.403.398.398 0 0 0-.398.403v1.59a11.334 11.334 0 0 1-2.11-.278l.203-.766a.4.4 0 0 0-.773-.207l-.203.766a11.016 11.016 0 0 1-1.965-.816l.394-.684A.402.402 0 0 0 7 20.66a.403.403 0 0 0-.547.149l-.39.68a11.128 11.128 0 0 1-1.688-1.298l.555-.554a.4.4 0 0 0-.567-.567l-.554.555a11.095 11.095 0 0 1-1.297-1.684l.68-.394a.398.398 0 1 0-.399-.692l-.684.395a11.26 11.26 0 0 1-.816-1.965l.766-.207a.397.397 0 0 0 .28-.488.396.396 0 0 0-.487-.285l-.766.207a11.42 11.42 0 0 1-.277-2.114h1.59a.398.398 0 1 0 0-.796H.808c.027-.723.12-1.43.277-2.114l.766.207a.4.4 0 0 0 .207-.773l-.766-.203c.21-.688.484-1.344.816-1.965l.684.394A.409.409 0 0 0 3.34 7a.402.402 0 0 0-.149-.547l-.68-.394c.38-.602.813-1.168 1.298-1.684l.554.555a.399.399 0 0 0 .566 0 .4.4 0 0 0 0-.567l-.554-.554a11.095 11.095 0 0 1 1.684-1.297l.394.68A.4.4 0 0 0 7 3.34a.397.397 0 0 0 .145-.547l-.395-.684a11.26 11.26 0 0 1 1.965-.816l.207.766a.397.397 0 0 0 .488.28.4.4 0 0 0 .285-.487l-.207-.766a11.42 11.42 0 0 1 2.114-.277v1.59a.398.398 0 1 0 .796 0V.808c.723.027 1.43.12 2.114.277l-.207.766a.4.4 0 0 0 .285.488.425.425 0 0 0 .101.015.4.4 0 0 0 .387-.296l.203-.766c.688.21 1.344.484 1.965.816l-.394.684a.402.402 0 0 0 .347.602.405.405 0 0 0 .348-.204l.394-.68c.602.38 1.164.813 1.684 1.298l-.555.554a.4.4 0 0 0 .567.567l.554-.555c.485.516.918 1.082 1.297 1.684l-.683.394a.4.4 0 0 0 .402.692l.684-.395c.332.625.605 1.281.816 1.965l-.766.207a.395.395 0 0 0-.28.488c.046.18.206.297.382.297.035 0 .07-.004.105-.012l.766-.207c.156.684.25 1.387.273 2.11h-1.585a.402.402 0 0 0-.403.402c0 .223.18.398.403.398h1.59c-.028.723-.122 1.43-.278 2.11l-.766-.203a.4.4 0 1 0-.207.773zm0 0"/>
    <path d="M16.398 11.602h-2.855c-.145-.563-.582-1-1.145-1.145V5.199a.398.398 0 1 0-.796 0v5.258c-.692.18-1.204.8-1.204 1.543 0 .883.72 1.602 1.602 1.602.742 0 1.363-.512 1.543-1.204h2.855a.398.398 0 1 0 0-.796zM12 12.8a.802.802 0 0 1 0-1.602.802.802 0 0 1 0 1.602zm0 0M12 14a3.203 3.203 0 0 0-3.2 3.2 3.2 3.2 0 0 0 3.2 3.198 3.2 3.2 0 0 0 3.2-3.199C15.2 15.437 13.765 14 12 14zm0 5.602a2.402 2.402 0 0 1-2.398-2.403 2.399 2.399 0 0 1 4.796 0A2.402 2.402 0 0 1 12 19.602zm0 0"/>
    <path d="M11.082 15.719a.4.4 0 0 0-.566 0 .396.396 0 0 0 0 .562l1.203 1.203a.396.396 0 0 0 .562 0 .4.4 0 0 0 0-.566zm0 0"/>
</svg>
